icons/Map/taxi-wifi-fill.svg

<svg viewBox="0 0 24 24" xmlns="http://www.w3.org/2000/svg"><path d="M12 3V7H6.31879L4.175 12H22V21C22 21.5523 21.5523 22 21 22H20C19.4477 22 19 21.5523 19 21V20H5V21C5 21.5523 4.55228 22 4 22H3C2.44772 22 2 21.5523 2 21V12L4.4805 6.21216C4.79566 5.47679 5.51874 5 6.31879 5H9V3H12ZM6.5 14C5.67157 14 5 14.6716 5 15.5C5 16.3284 5.67157 17 6.5 17C7.32843 17 8 16.3284 8 15.5C8 14.6716 7.32843 14 6.5 14ZM17.5 14C16.6716 14 16 14.6716 16 15.5C16 16.3284 16.6716 17 17.5 17C18.3284 17 19 16.3284 19 15.5C19 14.6716 18.3284 14 17.5 14ZM18.5 1C20.9853 1 23 3.01472 23 5.5C23 7.98528 20.9853 10 18.5 10C16.0147 10 14 7.98528 14 5.5C14 3.01472 16.0147 1 18.5 1ZM18.4998 6.16667C18.0089 6.16667 17.5593 6.34354 17.2113 6.63704L17.0856 6.75245L18.4998 8.16667L19.9131 6.7515C19.5512 6.39013 19.0516 6.16667 18.4998 6.16667ZM18.4998 3.5C17.2966 3.5 16.1998 3.95536 15.3722 4.70316L15.199 4.86781L16.1428 5.80964C16.746 5.20643 17.5794 4.83333 18.4998 4.83333C19.3436 4.83333 20.1141 5.14684 20.7013 5.66372L20.8569 5.80964L21.7997 4.86684C20.9552 4.02233 19.7885 3.5 18.4998 3.5Z"/></svg>

<svg xmlns="http://www.w3.org/2000/svg" viewBox="0 0 24 24">
    <g>
        <path fill="none" d="M0 0h24v24H0z"/>
        <path fill-rule="nonzero" d="M12 3v4H6.319l-2.144 5H22v9a1 1 0 0 1-1 1h-1a1 1 0 0 1-1-1v-1H5v1a1 1 0 0 1-1 1H3a1 1 0 0 1-1-1v-9l2.48-5.788A2 2 0 0 1 6.32 5H9V3h3zM6.5 14a1.5 1.5 0 1 0 0 3 1.5 1.5 0 0 0 0-3zm11 0a1.5 1.5 0 1 0 0 3 1.5 1.5 0 0 0 0-3zm1-13a4.5 4.5 0 1 1 0 9 4.5 4.5 0 0 1 0-9zm0 5.167c-.491 0-.94.177-1.289.47l-.125.115L18.5 8.167l1.413-1.416a1.994 1.994 0 0 0-1.413-.584zm0-2.667a4.65 4.65 0 0 0-3.128 1.203l-.173.165.944.942a3.323 3.323 0 0 1 2.357-.977 3.32 3.32 0 0 1 2.201.83l.156.147.943-.943A4.652 4.652 0 0 0 18.5 3.5z"/>
    </g>
</svg>
